(Project microatxcasemb)
(Created by Estlcam version 11 build 11.244)
(Machining time about 00:05:17 hours)

(Required tools:)
(Taper)
G21
G90
G94
M03 S12000
G00 Z5.0000


(No. 1: Hole 16)
G00 X29.1665 Y10.9864
G00 Z0.5000
G01 Z0.0000 F2400 S12000
G01 Z-1.0000
G01 X28.4336 Y11.8599 F6000
G01 Y13.0001
G01 X29.1665 Y13.8736
G01 X30.2895 Y14.0717
G01 X31.2770 Y13.5015
G01 X31.6670 Y12.4300
G01 X31.2770 Y11.3585
G01 X30.2895 Y10.7883
G01 X29.1665 Y10.9864
G01 Z-2.0000 F2400
G01 X28.4336 Y11.8599 F6000
G01 Y13.0001
G01 X29.1665 Y13.8736
G01 X30.2895 Y14.0717
G01 X31.2770 Y13.5015
G01 X31.6670 Y12.4300
G01 X31.2770 Y11.3585
G01 X30.2895 Y10.7883
G01 X29.1665 Y10.9864
G01 Z-3.0000 F2400
G01 X28.4336 Y11.8599 F6000
G01 Y13.0001
G01 X29.1665 Y13.8736
G01 X30.2895 Y14.0717
G01 X31.2770 Y13.5015
G01 X31.6670 Y12.4300
G01 X31.2770 Y11.3585
G01 X30.2895 Y10.7883
G01 X29.1665 Y10.9864
G01 Z-4.0000 F2400
G01 X28.4336 Y11.8599 F6000
G01 Y13.0001
G01 X29.1665 Y13.8736
G01 X30.2895 Y14.0717
G01 X31.2770 Y13.5015
G01 X31.6670 Y12.4300
G01 X31.2770 Y11.3585
G01 X30.2895 Y10.7883
G01 X29.1665 Y10.9864
G01 Z-5.0000 F2400
G01 X28.4336 Y11.8599 F6000
G01 Y13.0001
G01 X29.1665 Y13.8736
G01 X30.2895 Y14.0717
G01 X31.2770 Y13.5015
G01 X31.6670 Y12.4300
G01 X31.2770 Y11.3585
G01 X30.2895 Y10.7883
G01 X29.1665 Y10.9864
G01 Z-6.0000 F2400
G01 X28.4336 Y11.8599 F6000
G01 Y13.0001
G01 X29.1665 Y13.8736
G01 X30.2895 Y14.0717
G01 X31.2770 Y13.5015
G01 X31.6670 Y12.4300
G01 X31.2770 Y11.3585
G01 X30.2895 Y10.7883
G01 X29.1665 Y10.9864
G01 Z-7.0000 F2400
G01 X28.4336 Y11.8599 F6000
G01 Y13.0001
G01 X29.1665 Y13.8736
G01 X30.2895 Y14.0717
G01 X31.2770 Y13.5015
G01 X31.6670 Y12.4300
G01 X31.2770 Y11.3585
G01 X30.2895 Y10.7883
G01 X29.1665 Y10.9864
G01 Z-8.0000 F2400
G01 X28.4336 Y11.8599 F6000
G01 Y13.0001
G01 X29.1665 Y13.8736
G01 X30.2895 Y14.0717
G01 X31.2770 Y13.5015
G01 X31.6670 Y12.4300
G01 X31.2770 Y11.3585
G01 X30.2895 Y10.7883
G01 X29.1665 Y10.9864
G01 Z-8.5000 F2400
G01 X28.4336 Y11.8599 F6000
G01 Y13.0001
G01 X29.1665 Y13.8736
G01 X30.2895 Y14.0717
G01 X31.2770 Y13.5015
G01 X31.6670 Y12.4300
G01 X31.2770 Y11.3585
G01 X30.2895 Y10.7883
G01 X29.1665 Y10.9864
G00 Z5.0000


(No. 2: Hole 19)
G00 X26.5417 Y33.4583 Z5.0000
G00 Z0.5000
G01 Z0.0000 F2400
G01 Z-1.0000
G01 X13.4583 F6000
G01 Y83.2083
G01 X26.5417
G01 Y33.4583
G01 Z-2.0000 F2400
G01 X13.4583 F6000
G01 Y83.2083
G01 X26.5417
G01 Y33.4583
G01 Z-3.0000 F2400
G01 X13.4583 F6000
G01 Y83.2083
G01 X26.5417
G01 Y33.4583
G01 Z-4.0000 F2400
G01 X13.4583 F6000
G01 Y83.2083
G01 X26.5417
G01 Y33.4583
G01 Z-5.0000 F2400
G01 X13.4583 F6000
G01 Y83.2083
G01 X26.5417
G01 Y33.4583
G01 Z-6.0000 F2400
G01 X13.4583 F6000
G01 Y83.2083
G01 X26.5417
G01 Y33.4583
G01 Z-7.0000 F2400
G01 X13.4583 F6000
G01 Y83.2083
G01 X26.5417
G01 Y33.4583
G01 Z-8.0000 F2400
G01 X13.4583 F6000
G01 Y83.2083
G01 X26.5417
G01 Y33.4583
G01 Z-8.5000 F2400
G01 X13.4583 F6000
G01 Y83.2083
G01 X26.5417
G01 Y33.4583
G00 Z5.0000


(No. 3: Hole 15)
G00 X35.3540 Y40.6200 Z5.0000
G00 Z0.5000
G01 Z0.0000 F2400
G01 Z-1.0000
G01 X34.6015 Y40.7527 F6000
G01 X34.1104 Y41.3380
G01 Y42.1020
G01 X34.6015 Y42.6873
G01 X35.3540 Y42.8200
G01 X36.0157 Y42.4380
G01 X36.2770 Y41.7200
G01 X36.0157 Y41.0020
G01 X35.3540 Y40.6200
G01 Z-2.0000 F2400
G01 X34.6015 Y40.7527 F6000
G01 X34.1104 Y41.3380
G01 Y42.1020
G01 X34.6015 Y42.6873
G01 X35.3540 Y42.8200
G01 X36.0157 Y42.4380
G01 X36.2770 Y41.7200
G01 X36.0157 Y41.0020
G01 X35.3540 Y40.6200
G01 Z-3.0000 F2400
G01 X34.6015 Y40.7527 F6000
G01 X34.1104 Y41.3380
G01 Y42.1020
G01 X34.6015 Y42.6873
G01 X35.3540 Y42.8200
G01 X36.0157 Y42.4380
G01 X36.2770 Y41.7200
G01 X36.0157 Y41.0020
G01 X35.3540 Y40.6200
G01 Z-4.0000 F2400
G01 X34.6015 Y40.7527 F6000
G01 X34.1104 Y41.3380
G01 Y42.1020
G01 X34.6015 Y42.6873
G01 X35.3540 Y42.8200
G01 X36.0157 Y42.4380
G01 X36.2770 Y41.7200
G01 X36.0157 Y41.0020
G01 X35.3540 Y40.6200
G01 Z-5.0000 F2400
G01 X34.6015 Y40.7527 F6000
G01 X34.1104 Y41.3380
G01 Y42.1020
G01 X34.6015 Y42.6873
G01 X35.3540 Y42.8200
G01 X36.0157 Y42.4380
G01 X36.2770 Y41.7200
G01 X36.0157 Y41.0020
G01 X35.3540 Y40.6200
G01 Z-6.0000 F2400
G01 X34.6015 Y40.7527 F6000
G01 X34.1104 Y41.3380
G01 Y42.1020
G01 X34.6015 Y42.6873
G01 X35.3540 Y42.8200
G01 X36.0157 Y42.4380
G01 X36.2770 Y41.7200
G01 X36.0157 Y41.0020
G01 X35.3540 Y40.6200
G01 Z-7.0000 F2400
G01 X34.6015 Y40.7527 F6000
G01 X34.1104 Y41.3380
G01 Y42.1020
G01 X34.6015 Y42.6873
G01 X35.3540 Y42.8200
G01 X36.0157 Y42.4380
G01 X36.2770 Y41.7200
G01 X36.0157 Y41.0020
G01 X35.3540 Y40.6200
G01 Z-8.0000 F2400
G01 X34.6015 Y40.7527 F6000
G01 X34.1104 Y41.3380
G01 Y42.1020
G01 X34.6015 Y42.6873
G01 X35.3540 Y42.8200
G01 X36.0157 Y42.4380
G01 X36.2770 Y41.7200
G01 X36.0157 Y41.0020
G01 X35.3540 Y40.6200
G01 Z-8.5000 F2400
G01 X34.6015 Y40.7527 F6000
G01 X34.1104 Y41.3380
G01 Y42.1020
G01 X34.6015 Y42.6873
G01 X35.3540 Y42.8200
G01 X36.0157 Y42.4380
G01 X36.2770 Y41.7200
G01 X36.0157 Y41.0020
G01 X35.3540 Y40.6200
G00 Z5.0000


(No. 4: Hole 14)
G00 X35.3540 Y86.3400 Z5.0000
G00 Z0.5000
G01 Z0.0000 F2400
G01 Z-1.0000
G01 X34.6015 Y86.4727 F6000
G01 X34.1104 Y87.0580
G01 Y87.8220
G01 X34.6015 Y88.4073
G01 X35.3540 Y88.5400
G01 X36.0157 Y88.1580
G01 X36.2770 Y87.4400
G01 X36.0157 Y86.7220
G01 X35.3540 Y86.3400
G01 Z-2.0000 F2400
G01 X34.6015 Y86.4727 F6000
G01 X34.1104 Y87.0580
G01 Y87.8220
G01 X34.6015 Y88.4073
G01 X35.3540 Y88.5400
G01 X36.0157 Y88.1580
G01 X36.2770 Y87.4400
G01 X36.0157 Y86.7220
G01 X35.3540 Y86.3400
G01 Z-3.0000 F2400
G01 X34.6015 Y86.4727 F6000
G01 X34.1104 Y87.0580
G01 Y87.8220
G01 X34.6015 Y88.4073
G01 X35.3540 Y88.5400
G01 X36.0157 Y88.1580
G01 X36.2770 Y87.4400
G01 X36.0157 Y86.7220
G01 X35.3540 Y86.3400
G01 Z-4.0000 F2400
G01 X34.6015 Y86.4727 F6000
G01 X34.1104 Y87.0580
G01 Y87.8220
G01 X34.6015 Y88.4073
G01 X35.3540 Y88.5400
G01 X36.0157 Y88.1580
G01 X36.2770 Y87.4400
G01 X36.0157 Y86.7220
G01 X35.3540 Y86.3400
G01 Z-5.0000 F2400
G01 X34.6015 Y86.4727 F6000
G01 X34.1104 Y87.0580
G01 Y87.8220
G01 X34.6015 Y88.4073
G01 X35.3540 Y88.5400
G01 X36.0157 Y88.1580
G01 X36.2770 Y87.4400
G01 X36.0157 Y86.7220
G01 X35.3540 Y86.3400
G01 Z-6.0000 F2400
G01 X34.6015 Y86.4727 F6000
G01 X34.1104 Y87.0580
G01 Y87.8220
G01 X34.6015 Y88.4073
G01 X35.3540 Y88.5400
G01 X36.0157 Y88.1580
G01 X36.2770 Y87.4400
G01 X36.0157 Y86.7220
G01 X35.3540 Y86.3400
G01 Z-7.0000 F2400
G01 X34.6015 Y86.4727 F6000
G01 X34.1104 Y87.0580
G01 Y87.8220
G01 X34.6015 Y88.4073
G01 X35.3540 Y88.5400
G01 X36.0157 Y88.1580
G01 X36.2770 Y87.4400
G01 X36.0157 Y86.7220
G01 X35.3540 Y86.3400
G01 Z-8.0000 F2400
G01 X34.6015 Y86.4727 F6000
G01 X34.1104 Y87.0580
G01 Y87.8220
G01 X34.6015 Y88.4073
G01 X35.3540 Y88.5400
G01 X36.0157 Y88.1580
G01 X36.2770 Y87.4400
G01 X36.0157 Y86.7220
G01 X35.3540 Y86.3400
G01 Z-8.5000 F2400
G01 X34.6015 Y86.4727 F6000
G01 X34.1104 Y87.0580
G01 Y87.8220
G01 X34.6015 Y88.4073
G01 X35.3540 Y88.5400
G01 X36.0157 Y88.1580
G01 X36.2770 Y87.4400
G01 X36.0157 Y86.7220
G01 X35.3540 Y86.3400
G00 Z5.0000


(No. 5: Hole 18)
G00 X19.8750 Y92.1250 Z5.0000
G00 Z0.5000
G01 Z0.0000 F2400
G01 Z-1.0000
G01 X10.1250 F6000
G01 Y95.8750
G01 X19.8750
G01 Y92.1250
G01 Z-2.0000 F2400
G01 X10.1250 F6000
G01 Y95.8750
G01 X19.8750
G01 Y92.1250
G01 Z-3.0000 F2400
G01 X10.1250 F6000
G01 Y95.8750
G01 X19.8750
G01 Y92.1250
G01 Z-4.0000 F2400
G01 X10.1250 F6000
G01 Y95.8750
G01 X19.8750
G01 Y92.1250
G01 Z-5.0000 F2400
G01 X10.1250 F6000
G01 Y95.8750
G01 X19.8750
G01 Y92.1250
G01 Z-6.0000 F2400
G01 X10.1250 F6000
G01 Y95.8750
G01 X19.8750
G01 Y92.1250
G01 Z-7.0000 F2400
G01 X10.1250 F6000
G01 Y95.8750
G01 X19.8750
G01 Y92.1250
G01 Z-8.0000 F2400
G01 X10.1250 F6000
G01 Y95.8750
G01 X19.8750
G01 Y92.1250
G01 Z-8.5000 F2400
G01 X10.1250 F6000
G01 Y95.8750
G01 X19.8750
G01 Y92.1250
G00 Z5.0000


(No. 6: Hole 17)
G00 X118.7150 Y14.5550 Z5.0000
G00 Z0.5000
G01 Z0.0000 F2400
G01 Z-1.0000
G01 X68.9650 F6000
G01 Y27.6383
G01 X118.7150
G01 Y14.5550
G01 Z-2.0000 F2400
G01 X68.9650 F6000
G01 Y27.6383
G01 X118.7150
G01 Y14.5550
G01 Z-3.0000 F2400
G01 X68.9650 F6000
G01 Y27.6383
G01 X118.7150
G01 Y14.5550
G01 Z-4.0000 F2400
G01 X68.9650 F6000
G01 Y27.6383
G01 X118.7150
G01 Y14.5550
G01 Z-5.0000 F2400
G01 X68.9650 F6000
G01 Y27.6383
G01 X118.7150
G01 Y14.5550
G01 Z-6.0000 F2400
G01 X68.9650 F6000
G01 Y27.6383
G01 X118.7150
G01 Y14.5550
G01 Z-7.0000 F2400
G01 X68.9650 F6000
G01 Y27.6383
G01 X118.7150
G01 Y14.5550
G01 Z-8.0000 F2400
G01 X68.9650 F6000
G01 Y27.6383
G01 X118.7150
G01 Y14.5550
G01 Z-8.5000 F2400
G01 X68.9650 F6000
G01 Y27.6383
G01 X118.7150
G01 Y14.5550
G00 Z5.0000


(No. 7: Hole 20)
G00 X140.4065 Y16.4830 Z5.0000
G00 Z0.5000
G01 Z0.0000 F2400
G01 Z-1.0000
G01 X137.3870 Y20.0814 F6000
G01 Y24.7786
G01 X140.4065 Y28.3770
G01 X145.0329 Y29.1927
G01 X149.1001 Y26.8440
G01 X150.7070 Y22.4300
G01 X149.1001 Y18.0160
G01 X145.0329 Y15.6673
G01 X140.4065 Y16.4830
G01 Z-2.0000 F2400
G01 X137.3870 Y20.0814 F6000
G01 Y24.7786
G01 X140.4065 Y28.3770
G01 X145.0329 Y29.1927
G01 X149.1001 Y26.8440
G01 X150.7070 Y22.4300
G01 X149.1001 Y18.0160
G01 X145.0329 Y15.6673
G01 X140.4065 Y16.4830
G01 Z-3.0000 F2400
G01 X137.3870 Y20.0814 F6000
G01 Y24.7786
G01 X140.4065 Y28.3770
G01 X145.0329 Y29.1927
G01 X149.1001 Y26.8440
G01 X150.7070 Y22.4300
G01 X149.1001 Y18.0160
G01 X145.0329 Y15.6673
G01 X140.4065 Y16.4830
G01 Z-4.0000 F2400
G01 X137.3870 Y20.0814 F6000
G01 Y24.7786
G01 X140.4065 Y28.3770
G01 X145.0329 Y29.1927
G01 X149.1001 Y26.8440
G01 X150.7070 Y22.4300
G01 X149.1001 Y18.0160
G01 X145.0329 Y15.6673
G01 X140.4065 Y16.4830
G01 Z-5.0000 F2400
G01 X137.3870 Y20.0814 F6000
G01 Y24.7786
G01 X140.4065 Y28.3770
G01 X145.0329 Y29.1927
G01 X149.1001 Y26.8440
G01 X150.7070 Y22.4300
G01 X149.1001 Y18.0160
G01 X145.0329 Y15.6673
G01 X140.4065 Y16.4830
G01 Z-6.0000 F2400
G01 X137.3870 Y20.0814 F6000
G01 Y24.7786
G01 X140.4065 Y28.3770
G01 X145.0329 Y29.1927
G01 X149.1001 Y26.8440
G01 X150.7070 Y22.4300
G01 X149.1001 Y18.0160
G01 X145.0329 Y15.6673
G01 X140.4065 Y16.4830
G01 Z-7.0000 F2400
G01 X137.3870 Y20.0814 F6000
G01 Y24.7786
G01 X140.4065 Y28.3770
G01 X145.0329 Y29.1927
G01 X149.1001 Y26.8440
G01 X150.7070 Y22.4300
G01 X149.1001 Y18.0160
G01 X145.0329 Y15.6673
G01 X140.4065 Y16.4830
G01 Z-8.0000 F2400
G01 X137.3870 Y20.0814 F6000
G01 Y24.7786
G01 X140.4065 Y28.3770
G01 X145.0329 Y29.1927
G01 X149.1001 Y26.8440
G01 X150.7070 Y22.4300
G01 X149.1001 Y18.0160
G01 X145.0329 Y15.6673
G01 X140.4065 Y16.4830
G01 Z-8.5000 F2400
G01 X137.3870 Y20.0814 F6000
G01 Y24.7786
G01 X140.4065 Y28.3770
G01 X145.0329 Y29.1927
G01 X149.1001 Y26.8440
G01 X150.7070 Y22.4300
G01 X149.1001 Y18.0160
G01 X145.0329 Y15.6673
G01 X140.4065 Y16.4830
G00 Z5.0000


(No. 8: Hole 21)
G00 X170.4065 Y16.4830 Z5.0000
G00 Z0.5000
G01 Z0.0000 F2400
G01 Z-1.0000
G01 X167.3870 Y20.0814 F6000
G01 Y24.7786
G01 X170.4065 Y28.3770
G01 X175.0329 Y29.1927
G01 X179.1001 Y26.8440
G01 X180.7070 Y22.4300
G01 X179.1001 Y18.0160
G01 X175.0329 Y15.6673
G01 X170.4065 Y16.4830
G01 Z-2.0000 F2400
G01 X167.3870 Y20.0814 F6000
G01 Y24.7786
G01 X170.4065 Y28.3770
G01 X175.0329 Y29.1927
G01 X179.1001 Y26.8440
G01 X180.7070 Y22.4300
G01 X179.1001 Y18.0160
G01 X175.0329 Y15.6673
G01 X170.4065 Y16.4830
G01 Z-3.0000 F2400
G01 X167.3870 Y20.0814 F6000
G01 Y24.7786
G01 X170.4065 Y28.3770
G01 X175.0329 Y29.1927
G01 X179.1001 Y26.8440
G01 X180.7070 Y22.4300
G01 X179.1001 Y18.0160
G01 X175.0329 Y15.6673
G01 X170.4065 Y16.4830
G01 Z-4.0000 F2400
G01 X167.3870 Y20.0814 F6000
G01 Y24.7786
G01 X170.4065 Y28.3770
G01 X175.0329 Y29.1927
G01 X179.1001 Y26.8440
G01 X180.7070 Y22.4300
G01 X179.1001 Y18.0160
G01 X175.0329 Y15.6673
G01 X170.4065 Y16.4830
G01 Z-5.0000 F2400
G01 X167.3870 Y20.0814 F6000
G01 Y24.7786
G01 X170.4065 Y28.3770
G01 X175.0329 Y29.1927
G01 X179.1001 Y26.8440
G01 X180.7070 Y22.4300
G01 X179.1001 Y18.0160
G01 X175.0329 Y15.6673
G01 X170.4065 Y16.4830
G01 Z-6.0000 F2400
G01 X167.3870 Y20.0814 F6000
G01 Y24.7786
G01 X170.4065 Y28.3770
G01 X175.0329 Y29.1927
G01 X179.1001 Y26.8440
G01 X180.7070 Y22.4300
G01 X179.1001 Y18.0160
G01 X175.0329 Y15.6673
G01 X170.4065 Y16.4830
G01 Z-7.0000 F2400
G01 X167.3870 Y20.0814 F6000
G01 Y24.7786
G01 X170.4065 Y28.3770
G01 X175.0329 Y29.1927
G01 X179.1001 Y26.8440
G01 X180.7070 Y22.4300
G01 X179.1001 Y18.0160
G01 X175.0329 Y15.6673
G01 X170.4065 Y16.4830
G01 Z-8.0000 F2400
G01 X167.3870 Y20.0814 F6000
G01 Y24.7786
G01 X170.4065 Y28.3770
G01 X175.0329 Y29.1927
G01 X179.1001 Y26.8440
G01 X180.7070 Y22.4300
G01 X179.1001 Y18.0160
G01 X175.0329 Y15.6673
G01 X170.4065 Y16.4830
G01 Z-8.5000 F2400
G01 X167.3870 Y20.0814 F6000
G01 Y24.7786
G01 X170.4065 Y28.3770
G01 X175.0329 Y29.1927
G01 X179.1001 Y26.8440
G01 X180.7070 Y22.4300
G01 X179.1001 Y18.0160
G01 X175.0329 Y15.6673
G01 X170.4065 Y16.4830
G00 Z5.0000


(No. 9: Hole 22)
G00 X189.5415 Y20.4327 Z5.0000
G00 Z0.5000
G01 Z0.0000 F2400
G01 Z-1.0000
G01 X189.0500 Y21.0180 F6000
G01 Y21.7820
G01 X189.5415 Y22.3673
G01 X190.2939 Y22.5000
G01 X190.9561 Y22.1180
G01 X191.2170 Y21.4000
G01 X190.9561 Y20.6820
G01 X190.2939 Y20.3000
G01 X189.5415 Y20.4327
G01 Z-2.0000 F2400
G01 X189.0500 Y21.0180 F6000
G01 Y21.7820
G01 X189.5415 Y22.3673
G01 X190.2939 Y22.5000
G01 X190.9561 Y22.1180
G01 X191.2170 Y21.4000
G01 X190.9561 Y20.6820
G01 X190.2939 Y20.3000
G01 X189.5415 Y20.4327
G01 Z-3.0000 F2400
G01 X189.0500 Y21.0180 F6000
G01 Y21.7820
G01 X189.5415 Y22.3673
G01 X190.2939 Y22.5000
G01 X190.9561 Y22.1180
G01 X191.2170 Y21.4000
G01 X190.9561 Y20.6820
G01 X190.2939 Y20.3000
G01 X189.5415 Y20.4327
G01 Z-4.0000 F2400
G01 X189.0500 Y21.0180 F6000
G01 Y21.7820
G01 X189.5415 Y22.3673
G01 X190.2939 Y22.5000
G01 X190.9561 Y22.1180
G01 X191.2170 Y21.4000
G01 X190.9561 Y20.6820
G01 X190.2939 Y20.3000
G01 X189.5415 Y20.4327
G01 Z-5.0000 F2400
G01 X189.0500 Y21.0180 F6000
G01 Y21.7820
G01 X189.5415 Y22.3673
G01 X190.2939 Y22.5000
G01 X190.9561 Y22.1180
G01 X191.2170 Y21.4000
G01 X190.9561 Y20.6820
G01 X190.2939 Y20.3000
G01 X189.5415 Y20.4327
G01 Z-6.0000 F2400
G01 X189.0500 Y21.0180 F6000
G01 Y21.7820
G01 X189.5415 Y22.3673
G01 X190.2939 Y22.5000
G01 X190.9561 Y22.1180
G01 X191.2170 Y21.4000
G01 X190.9561 Y20.6820
G01 X190.2939 Y20.3000
G01 X189.5415 Y20.4327
G01 Z-7.0000 F2400
G01 X189.0500 Y21.0180 F6000
G01 Y21.7820
G01 X189.5415 Y22.3673
G01 X190.2939 Y22.5000
G01 X190.9561 Y22.1180
G01 X191.2170 Y21.4000
G01 X190.9561 Y20.6820
G01 X190.2939 Y20.3000
G01 X189.5415 Y20.4327
G01 Z-8.0000 F2400
G01 X189.0500 Y21.0180 F6000
G01 Y21.7820
G01 X189.5415 Y22.3673
G01 X190.2939 Y22.5000
G01 X190.9561 Y22.1180
G01 X191.2170 Y21.4000
G01 X190.9561 Y20.6820
G01 X190.2939 Y20.3000
G01 X189.5415 Y20.4327
G01 Z-8.5000 F2400
G01 X189.0500 Y21.0180 F6000
G01 Y21.7820
G01 X189.5415 Y22.3673
G01 X190.2939 Y22.5000
G01 X190.9561 Y22.1180
G01 X191.2170 Y21.4000
G01 X190.9561 Y20.6820
G01 X190.2939 Y20.3000
G01 X189.5415 Y20.4327
G00 Z5.0000


(No. 10: Hole 23)
G00 X189.5415 Y40.7527 Z5.0000
G00 Z0.5000
G01 Z0.0000 F2400
G01 Z-1.0000
G01 X189.0500 Y41.3380 F6000
G01 Y42.1020
G01 X189.5415 Y42.6873
G01 X190.2939 Y42.8200
G01 X190.9561 Y42.4380
G01 X191.2170 Y41.7200
G01 X190.9561 Y41.0020
G01 X190.2939 Y40.6200
G01 X189.5415 Y40.7527
G01 Z-2.0000 F2400
G01 X189.0500 Y41.3380 F6000
G01 Y42.1020
G01 X189.5415 Y42.6873
G01 X190.2939 Y42.8200
G01 X190.9561 Y42.4380
G01 X191.2170 Y41.7200
G01 X190.9561 Y41.0020
G01 X190.2939 Y40.6200
G01 X189.5415 Y40.7527
G01 Z-3.0000 F2400
G01 X189.0500 Y41.3380 F6000
G01 Y42.1020
G01 X189.5415 Y42.6873
G01 X190.2939 Y42.8200
G01 X190.9561 Y42.4380
G01 X191.2170 Y41.7200
G01 X190.9561 Y41.0020
G01 X190.2939 Y40.6200
G01 X189.5415 Y40.7527
G01 Z-4.0000 F2400
G01 X189.0500 Y41.3380 F6000
G01 Y42.1020
G01 X189.5415 Y42.6873
G01 X190.2939 Y42.8200
G01 X190.9561 Y42.4380
G01 X191.2170 Y41.7200
G01 X190.9561 Y41.0020
G01 X190.2939 Y40.6200
G01 X189.5415 Y40.7527
G01 Z-5.0000 F2400
G01 X189.0500 Y41.3380 F6000
G01 Y42.1020
G01 X189.5415 Y42.6873
G01 X190.2939 Y42.8200
G01 X190.9561 Y42.4380
G01 X191.2170 Y41.7200
G01 X190.9561 Y41.0020
G01 X190.2939 Y40.6200
G01 X189.5415 Y40.7527
G01 Z-6.0000 F2400
G01 X189.0500 Y41.3380 F6000
G01 Y42.1020
G01 X189.5415 Y42.6873
G01 X190.2939 Y42.8200
G01 X190.9561 Y42.4380
G01 X191.2170 Y41.7200
G01 X190.9561 Y41.0020
G01 X190.2939 Y40.6200
G01 X189.5415 Y40.7527
G01 Z-7.0000 F2400
G01 X189.0500 Y41.3380 F6000
G01 Y42.1020
G01 X189.5415 Y42.6873
G01 X190.2939 Y42.8200
G01 X190.9561 Y42.4380
G01 X191.2170 Y41.7200
G01 X190.9561 Y41.0020
G01 X190.2939 Y40.6200
G01 X189.5415 Y40.7527
G01 Z-8.0000 F2400
G01 X189.0500 Y41.3380 F6000
G01 Y42.1020
G01 X189.5415 Y42.6873
G01 X190.2939 Y42.8200
G01 X190.9561 Y42.4380
G01 X191.2170 Y41.7200
G01 X190.9561 Y41.0020
G01 X190.2939 Y40.6200
G01 X189.5415 Y40.7527
G01 Z-8.5000 F2400
G01 X189.0500 Y41.3380 F6000
G01 Y42.1020
G01 X189.5415 Y42.6873
G01 X190.2939 Y42.8200
G01 X190.9561 Y42.4380
G01 X191.2170 Y41.7200
G01 X190.9561 Y41.0020
G01 X190.2939 Y40.6200
G01 X189.5415 Y40.7527
G00 Z5.0000


(No. 11: Hole 13)
G00 X189.5415 Y86.4727 Z5.0000
G00 Z0.5000
G01 Z0.0000 F2400
G01 Z-1.0000
G01 X189.0500 Y87.0580 F6000
G01 Y87.8220
G01 X189.5415 Y88.4073
G01 X190.2939 Y88.5400
G01 X190.9561 Y88.1580
G01 X191.2170 Y87.4400
G01 X190.9561 Y86.7220
G01 X190.2939 Y86.3400
G01 X189.5415 Y86.4727
G01 Z-2.0000 F2400
G01 X189.0500 Y87.0580 F6000
G01 Y87.8220
G01 X189.5415 Y88.4073
G01 X190.2939 Y88.5400
G01 X190.9561 Y88.1580
G01 X191.2170 Y87.4400
G01 X190.9561 Y86.7220
G01 X190.2939 Y86.3400
G01 X189.5415 Y86.4727
G01 Z-3.0000 F2400
G01 X189.0500 Y87.0580 F6000
G01 Y87.8220
G01 X189.5415 Y88.4073
G01 X190.2939 Y88.5400
G01 X190.9561 Y88.1580
G01 X191.2170 Y87.4400
G01 X190.9561 Y86.7220
G01 X190.2939 Y86.3400
G01 X189.5415 Y86.4727
G01 Z-4.0000 F2400
G01 X189.0500 Y87.0580 F6000
G01 Y87.8220
G01 X189.5415 Y88.4073
G01 X190.2939 Y88.5400
G01 X190.9561 Y88.1580
G01 X191.2170 Y87.4400
G01 X190.9561 Y86.7220
G01 X190.2939 Y86.3400
G01 X189.5415 Y86.4727
G01 Z-5.0000 F2400
G01 X189.0500 Y87.0580 F6000
G01 Y87.8220
G01 X189.5415 Y88.4073
G01 X190.2939 Y88.5400
G01 X190.9561 Y88.1580
G01 X191.2170 Y87.4400
G01 X190.9561 Y86.7220
G01 X190.2939 Y86.3400
G01 X189.5415 Y86.4727
G01 Z-6.0000 F2400
G01 X189.0500 Y87.0580 F6000
G01 Y87.8220
G01 X189.5415 Y88.4073
G01 X190.2939 Y88.5400
G01 X190.9561 Y88.1580
G01 X191.2170 Y87.4400
G01 X190.9561 Y86.7220
G01 X190.2939 Y86.3400
G01 X189.5415 Y86.4727
G01 Z-7.0000 F2400
G01 X189.0500 Y87.0580 F6000
G01 Y87.8220
G01 X189.5415 Y88.4073
G01 X190.2939 Y88.5400
G01 X190.9561 Y88.1580
G01 X191.2170 Y87.4400
G01 X190.9561 Y86.7220
G01 X190.2939 Y86.3400
G01 X189.5415 Y86.4727
G01 Z-8.0000 F2400
G01 X189.0500 Y87.0580 F6000
G01 Y87.8220
G01 X189.5415 Y88.4073
G01 X190.2939 Y88.5400
G01 X190.9561 Y88.1580
G01 X191.2170 Y87.4400
G01 X190.9561 Y86.7220
G01 X190.2939 Y86.3400
G01 X189.5415 Y86.4727
G01 Z-8.5000 F2400
G01 X189.0500 Y87.0580 F6000
G01 Y87.8220
G01 X189.5415 Y88.4073
G01 X190.2939 Y88.5400
G01 X190.9561 Y88.1580
G01 X191.2170 Y87.4400
G01 X190.9561 Y86.7220
G01 X190.2939 Y86.3400
G01 X189.5415 Y86.4727
G00 Z5.0000


(No. 12: Hole 24)
G00 X189.5415 Y86.4727 Z5.0000
G00 Z0.5000
G01 Z0.0000 F2400
G01 Z-1.0000
G01 X189.0500 Y87.0580 F6000
G01 Y87.8220
G01 X189.5415 Y88.4073
G01 X190.2939 Y88.5400
G01 X190.9561 Y88.1580
G01 X191.2170 Y87.4400
G01 X190.9561 Y86.7220
G01 X190.2939 Y86.3400
G01 X189.5415 Y86.4727
G01 Z-2.0000 F2400
G01 X189.0500 Y87.0580 F6000
G01 Y87.8220
G01 X189.5415 Y88.4073
G01 X190.2939 Y88.5400
G01 X190.9561 Y88.1580
G01 X191.2170 Y87.4400
G01 X190.9561 Y86.7220
G01 X190.2939 Y86.3400
G01 X189.5415 Y86.4727
G01 Z-3.0000 F2400
G01 X189.0500 Y87.0580 F6000
G01 Y87.8220
G01 X189.5415 Y88.4073
G01 X190.2939 Y88.5400
G01 X190.9561 Y88.1580
G01 X191.2170 Y87.4400
G01 X190.9561 Y86.7220
G01 X190.2939 Y86.3400
G01 X189.5415 Y86.4727
G01 Z-4.0000 F2400
G01 X189.0500 Y87.0580 F6000
G01 Y87.8220
G01 X189.5415 Y88.4073
G01 X190.2939 Y88.5400
G01 X190.9561 Y88.1580
G01 X191.2170 Y87.4400
G01 X190.9561 Y86.7220
G01 X190.2939 Y86.3400
G01 X189.5415 Y86.4727
G01 Z-5.0000 F2400
G01 X189.0500 Y87.0580 F6000
G01 Y87.8220
G01 X189.5415 Y88.4073
G01 X190.2939 Y88.5400
G01 X190.9561 Y88.1580
G01 X191.2170 Y87.4400
G01 X190.9561 Y86.7220
G01 X190.2939 Y86.3400
G01 X189.5415 Y86.4727
G01 Z-6.0000 F2400
G01 X189.0500 Y87.0580 F6000
G01 Y87.8220
G01 X189.5415 Y88.4073
G01 X190.2939 Y88.5400
G01 X190.9561 Y88.1580
G01 X191.2170 Y87.4400
G01 X190.9561 Y86.7220
G01 X190.2939 Y86.3400
G01 X189.5415 Y86.4727
G01 Z-7.0000 F2400
G01 X189.0500 Y87.0580 F6000
G01 Y87.8220
G01 X189.5415 Y88.4073
G01 X190.2939 Y88.5400
G01 X190.9561 Y88.1580
G01 X191.2170 Y87.4400
G01 X190.9561 Y86.7220
G01 X190.2939 Y86.3400
G01 X189.5415 Y86.4727
G01 Z-8.0000 F2400
G01 X189.0500 Y87.0580 F6000
G01 Y87.8220
G01 X189.5415 Y88.4073
G01 X190.2939 Y88.5400
G01 X190.9561 Y88.1580
G01 X191.2170 Y87.4400
G01 X190.9561 Y86.7220
G01 X190.2939 Y86.3400
G01 X189.5415 Y86.4727
G01 Z-8.5000 F2400
G01 X189.0500 Y87.0580 F6000
G01 Y87.8220
G01 X189.5415 Y88.4073
G01 X190.2939 Y88.5400
G01 X190.9561 Y88.1580
G01 X191.2170 Y87.4400
G01 X190.9561 Y86.7220
G01 X190.2939 Y86.3400
G01 X189.5415 Y86.4727
G00 Z5.0000


(No. 13: Hole 12)
G00 X261.9315 Y86.4727 Z5.0000
G00 Z0.5000
G01 Z0.0000 F2400
G01 Z-1.0000
G01 X261.4400 Y87.0580 F6000
G01 Y87.8220
G01 X261.9315 Y88.4073
G01 X262.6839 Y88.5400
G01 X263.3461 Y88.1580
G01 X263.6070 Y87.4400
G01 X263.3461 Y86.7220
G01 X262.6839 Y86.3400
G01 X261.9315 Y86.4727
G01 Z-2.0000 F2400
G01 X261.4400 Y87.0580 F6000
G01 Y87.8220
G01 X261.9315 Y88.4073
G01 X262.6839 Y88.5400
G01 X263.3461 Y88.1580
G01 X263.6070 Y87.4400
G01 X263.3461 Y86.7220
G01 X262.6839 Y86.3400
G01 X261.9315 Y86.4727
G01 Z-3.0000 F2400
G01 X261.4400 Y87.0580 F6000
G01 Y87.8220
G01 X261.9315 Y88.4073
G01 X262.6839 Y88.5400
G01 X263.3461 Y88.1580
G01 X263.6070 Y87.4400
G01 X263.3461 Y86.7220
G01 X262.6839 Y86.3400
G01 X261.9315 Y86.4727
G01 Z-4.0000 F2400
G01 X261.4400 Y87.0580 F6000
G01 Y87.8220
G01 X261.9315 Y88.4073
G01 X262.6839 Y88.5400
G01 X263.3461 Y88.1580
G01 X263.6070 Y87.4400
G01 X263.3461 Y86.7220
G01 X262.6839 Y86.3400
G01 X261.9315 Y86.4727
G01 Z-5.0000 F2400
G01 X261.4400 Y87.0580 F6000
G01 Y87.8220
G01 X261.9315 Y88.4073
G01 X262.6839 Y88.5400
G01 X263.3461 Y88.1580
G01 X263.6070 Y87.4400
G01 X263.3461 Y86.7220
G01 X262.6839 Y86.3400
G01 X261.9315 Y86.4727
G01 Z-6.0000 F2400
G01 X261.4400 Y87.0580 F6000
G01 Y87.8220
G01 X261.9315 Y88.4073
G01 X262.6839 Y88.5400
G01 X263.3461 Y88.1580
G01 X263.6070 Y87.4400
G01 X263.3461 Y86.7220
G01 X262.6839 Y86.3400
G01 X261.9315 Y86.4727
G01 Z-7.0000 F2400
G01 X261.4400 Y87.0580 F6000
G01 Y87.8220
G01 X261.9315 Y88.4073
G01 X262.6839 Y88.5400
G01 X263.3461 Y88.1580
G01 X263.6070 Y87.4400
G01 X263.3461 Y86.7220
G01 X262.6839 Y86.3400
G01 X261.9315 Y86.4727
G01 Z-8.0000 F2400
G01 X261.4400 Y87.0580 F6000
G01 Y87.8220
G01 X261.9315 Y88.4073
G01 X262.6839 Y88.5400
G01 X263.3461 Y88.1580
G01 X263.6070 Y87.4400
G01 X263.3461 Y86.7220
G01 X262.6839 Y86.3400
G01 X261.9315 Y86.4727
G01 Z-8.5000 F2400
G01 X261.4400 Y87.0580 F6000
G01 Y87.8220
G01 X261.9315 Y88.4073
G01 X262.6839 Y88.5400
G01 X263.3461 Y88.1580
G01 X263.6070 Y87.4400
G01 X263.3461 Y86.7220
G01 X262.6839 Y86.3400
G01 X261.9315 Y86.4727
G00 Z5.0000


(No. 14: Hole 11)
G00 X247.0480 Y37.5550 Z5.0000
G00 Z0.5000
G01 Z0.0000 F2400
G01 Z-1.0000
G01 X233.9650 F6000
G01 Y87.3050
G01 X247.0480
G01 Y37.5550
G01 Z-2.0000 F2400
G01 X233.9650 F6000
G01 Y87.3050
G01 X247.0480
G01 Y37.5550
G01 Z-3.0000 F2400
G01 X233.9650 F6000
G01 Y87.3050
G01 X247.0480
G01 Y37.5550
G01 Z-4.0000 F2400
G01 X233.9650 F6000
G01 Y87.3050
G01 X247.0480
G01 Y37.5550
G01 Z-5.0000 F2400
G01 X233.9650 F6000
G01 Y87.3050
G01 X247.0480
G01 Y37.5550
G01 Z-6.0000 F2400
G01 X233.9650 F6000
G01 Y87.3050
G01 X247.0480
G01 Y37.5550
G01 Z-7.0000 F2400
G01 X233.9650 F6000
G01 Y87.3050
G01 X247.0480
G01 Y37.5550
G01 Z-8.0000 F2400
G01 X233.9650 F6000
G01 Y87.3050
G01 X247.0480
G01 Y37.5550
G01 Z-8.5000 F2400
G01 X233.9650 F6000
G01 Y87.3050
G01 X247.0480
G01 Y37.5550
G00 Z5.0000


(No. 15: Hole 25)
G00 X247.0480 Y37.5550 Z5.0000
G00 Z0.5000
G01 Z0.0000 F2400
G01 Z-1.0000
G01 X233.9650 F6000
G01 Y87.3050
G01 X247.0480
G01 Y37.5550
G01 Z-2.0000 F2400
G01 X233.9650 F6000
G01 Y87.3050
G01 X247.0480
G01 Y37.5550
G01 Z-3.0000 F2400
G01 X233.9650 F6000
G01 Y87.3050
G01 X247.0480
G01 Y37.5550
G01 Z-4.0000 F2400
G01 X233.9650 F6000
G01 Y87.3050
G01 X247.0480
G01 Y37.5550
G01 Z-5.0000 F2400
G01 X233.9650 F6000
G01 Y87.3050
G01 X247.0480
G01 Y37.5550
G01 Z-6.0000 F2400
G01 X233.9650 F6000
G01 Y87.3050
G01 X247.0480
G01 Y37.5550
G01 Z-7.0000 F2400
G01 X233.9650 F6000
G01 Y87.3050
G01 X247.0480
G01 Y37.5550
G01 Z-8.0000 F2400
G01 X233.9650 F6000
G01 Y87.3050
G01 X247.0480
G01 Y37.5550
G01 Z-8.5000 F2400
G01 X233.9650 F6000
G01 Y87.3050
G01 X247.0480
G01 Y37.5550
G00 Z5.0000


(No. 16: Hole 26)
G00 X303.0065 Y10.9864 Z5.0000
G00 Z0.5000
G01 Z0.0000 F2400
G01 Z-1.0000
G01 X302.2740 Y11.8599 F6000
G01 Y13.0001
G01 X303.0065 Y13.8736
G01 X304.1299 Y14.0717
G01 X305.1171 Y13.5015
G01 X305.5070 Y12.4300
G01 X305.1171 Y11.3585
G01 X304.1299 Y10.7883
G01 X303.0065 Y10.9864
G01 Z-2.0000 F2400
G01 X302.2740 Y11.8599 F6000
G01 Y13.0001
G01 X303.0065 Y13.8736
G01 X304.1299 Y14.0717
G01 X305.1171 Y13.5015
G01 X305.5070 Y12.4300
G01 X305.1171 Y11.3585
G01 X304.1299 Y10.7883
G01 X303.0065 Y10.9864
G01 Z-3.0000 F2400
G01 X302.2740 Y11.8599 F6000
G01 Y13.0001
G01 X303.0065 Y13.8736
G01 X304.1299 Y14.0717
G01 X305.1171 Y13.5015
G01 X305.5070 Y12.4300
G01 X305.1171 Y11.3585
G01 X304.1299 Y10.7883
G01 X303.0065 Y10.9864
G01 Z-4.0000 F2400
G01 X302.2740 Y11.8599 F6000
G01 Y13.0001
G01 X303.0065 Y13.8736
G01 X304.1299 Y14.0717
G01 X305.1171 Y13.5015
G01 X305.5070 Y12.4300
G01 X305.1171 Y11.3585
G01 X304.1299 Y10.7883
G01 X303.0065 Y10.9864
G01 Z-5.0000 F2400
G01 X302.2740 Y11.8599 F6000
G01 Y13.0001
G01 X303.0065 Y13.8736
G01 X304.1299 Y14.0717
G01 X305.1171 Y13.5015
G01 X305.5070 Y12.4300
G01 X305.1171 Y11.3585
G01 X304.1299 Y10.7883
G01 X303.0065 Y10.9864
G01 Z-6.0000 F2400
G01 X302.2740 Y11.8599 F6000
G01 Y13.0001
G01 X303.0065 Y13.8736
G01 X304.1299 Y14.0717
G01 X305.1171 Y13.5015
G01 X305.5070 Y12.4300
G01 X305.1171 Y11.3585
G01 X304.1299 Y10.7883
G01 X303.0065 Y10.9864
G01 Z-7.0000 F2400
G01 X302.2740 Y11.8599 F6000
G01 Y13.0001
G01 X303.0065 Y13.8736
G01 X304.1299 Y14.0717
G01 X305.1171 Y13.5015
G01 X305.5070 Y12.4300
G01 X305.1171 Y11.3585
G01 X304.1299 Y10.7883
G01 X303.0065 Y10.9864
G01 Z-8.0000 F2400
G01 X302.2740 Y11.8599 F6000
G01 Y13.0001
G01 X303.0065 Y13.8736
G01 X304.1299 Y14.0717
G01 X305.1171 Y13.5015
G01 X305.5070 Y12.4300
G01 X305.1171 Y11.3585
G01 X304.1299 Y10.7883
G01 X303.0065 Y10.9864
G01 Z-8.5000 F2400
G01 X302.2740 Y11.8599 F6000
G01 Y13.0001
G01 X303.0065 Y13.8736
G01 X304.1299 Y14.0717
G01 X305.1171 Y13.5015
G01 X305.5070 Y12.4300
G01 X305.1171 Y11.3585
G01 X304.1299 Y10.7883
G01 X303.0065 Y10.9864
G00 Z5.0000


(No. 17: Hole 6)
G00 X247.0480 Y157.5550 Z5.0000
G00 Z0.5000
G01 Z0.0000 F2400
G01 Z-1.0000
G01 X233.9650 F6000
G01 Y207.3050
G01 X247.0480
G01 Y157.5550
G01 Z-2.0000 F2400
G01 X233.9650 F6000
G01 Y207.3050
G01 X247.0480
G01 Y157.5550
G01 Z-3.0000 F2400
G01 X233.9650 F6000
G01 Y207.3050
G01 X247.0480
G01 Y157.5550
G01 Z-4.0000 F2400
G01 X233.9650 F6000
G01 Y207.3050
G01 X247.0480
G01 Y157.5550
G01 Z-5.0000 F2400
G01 X233.9650 F6000
G01 Y207.3050
G01 X247.0480
G01 Y157.5550
G01 Z-6.0000 F2400
G01 X233.9650 F6000
G01 Y207.3050
G01 X247.0480
G01 Y157.5550
G01 Z-7.0000 F2400
G01 X233.9650 F6000
G01 Y207.3050
G01 X247.0480
G01 Y157.5550
G01 Z-8.0000 F2400
G01 X233.9650 F6000
G01 Y207.3050
G01 X247.0480
G01 Y157.5550
G01 Z-8.5000 F2400
G01 X233.9650 F6000
G01 Y207.3050
G01 X247.0480
G01 Y157.5550
G00 Z5.0000


(No. 18: Hole 10)
G00 X247.0480 Y157.5550 Z5.0000
G00 Z0.5000
G01 Z0.0000 F2400
G01 Z-1.0000
G01 X233.9650 F6000
G01 Y207.3050
G01 X247.0480
G01 Y157.5550
G01 Z-2.0000 F2400
G01 X233.9650 F6000
G01 Y207.3050
G01 X247.0480
G01 Y157.5550
G01 Z-3.0000 F2400
G01 X233.9650 F6000
G01 Y207.3050
G01 X247.0480
G01 Y157.5550
G01 Z-4.0000 F2400
G01 X233.9650 F6000
G01 Y207.3050
G01 X247.0480
G01 Y157.5550
G01 Z-5.0000 F2400
G01 X233.9650 F6000
G01 Y207.3050
G01 X247.0480
G01 Y157.5550
G01 Z-6.0000 F2400
G01 X233.9650 F6000
G01 Y207.3050
G01 X247.0480
G01 Y157.5550
G01 Z-7.0000 F2400
G01 X233.9650 F6000
G01 Y207.3050
G01 X247.0480
G01 Y157.5550
G01 Z-8.0000 F2400
G01 X233.9650 F6000
G01 Y207.3050
G01 X247.0480
G01 Y157.5550
G01 Z-8.5000 F2400
G01 X233.9650 F6000
G01 Y207.3050
G01 X247.0480
G01 Y157.5550
G00 Z5.0000


(No. 19: Hole 8)
G00 X262.6839 Y243.8200 Z5.0000
G00 Z0.5000
G01 Z0.0000 F2400
G01 Z-1.0000
G01 X261.9315 Y243.9522 F6000
G01 X261.4400 Y244.5375
G01 Y245.3025
G01 X261.9315 Y245.8878
G01 X262.6839 Y246.0200
G01 X263.3461 Y245.6375
G01 X263.6070 Y244.9200
G01 X263.3461 Y244.2025
G01 X262.6839 Y243.8200
G01 Z-2.0000 F2400
G01 X261.9315 Y243.9522 F6000
G01 X261.4400 Y244.5375
G01 Y245.3025
G01 X261.9315 Y245.8878
G01 X262.6839 Y246.0200
G01 X263.3461 Y245.6375
G01 X263.6070 Y244.9200
G01 X263.3461 Y244.2025
G01 X262.6839 Y243.8200
G01 Z-3.0000 F2400
G01 X261.9315 Y243.9522 F6000
G01 X261.4400 Y244.5375
G01 Y245.3025
G01 X261.9315 Y245.8878
G01 X262.6839 Y246.0200
G01 X263.3461 Y245.6375
G01 X263.6070 Y244.9200
G01 X263.3461 Y244.2025
G01 X262.6839 Y243.8200
G01 Z-4.0000 F2400
G01 X261.9315 Y243.9522 F6000
G01 X261.4400 Y244.5375
G01 Y245.3025
G01 X261.9315 Y245.8878
G01 X262.6839 Y246.0200
G01 X263.3461 Y245.6375
G01 X263.6070 Y244.9200
G01 X263.3461 Y244.2025
G01 X262.6839 Y243.8200
G01 Z-5.0000 F2400
G01 X261.9315 Y243.9522 F6000
G01 X261.4400 Y244.5375
G01 Y245.3025
G01 X261.9315 Y245.8878
G01 X262.6839 Y246.0200
G01 X263.3461 Y245.6375
G01 X263.6070 Y244.9200
G01 X263.3461 Y244.2025
G01 X262.6839 Y243.8200
G01 Z-6.0000 F2400
G01 X261.9315 Y243.9522 F6000
G01 X261.4400 Y244.5375
G01 Y245.3025
G01 X261.9315 Y245.8878
G01 X262.6839 Y246.0200
G01 X263.3461 Y245.6375
G01 X263.6070 Y244.9200
G01 X263.3461 Y244.2025
G01 X262.6839 Y243.8200
G01 Z-7.0000 F2400
G01 X261.9315 Y243.9522 F6000
G01 X261.4400 Y244.5375
G01 Y245.3025
G01 X261.9315 Y245.8878
G01 X262.6839 Y246.0200
G01 X263.3461 Y245.6375
G01 X263.6070 Y244.9200
G01 X263.3461 Y244.2025
G01 X262.6839 Y243.8200
G01 Z-8.0000 F2400
G01 X261.9315 Y243.9522 F6000
G01 X261.4400 Y244.5375
G01 Y245.3025
G01 X261.9315 Y245.8878
G01 X262.6839 Y246.0200
G01 X263.3461 Y245.6375
G01 X263.6070 Y244.9200
G01 X263.3461 Y244.2025
G01 X262.6839 Y243.8200
G01 Z-8.5000 F2400
G01 X261.9315 Y243.9522 F6000
G01 X261.4400 Y244.5375
G01 Y245.3025
G01 X261.9315 Y245.8878
G01 X262.6839 Y246.0200
G01 X263.3461 Y245.6375
G01 X263.6070 Y244.9200
G01 X263.3461 Y244.2025
G01 X262.6839 Y243.8200
G00 Z5.0000


(No. 20: Hole 9)
G00 X303.0065 Y244.6862 Z5.0000
G00 Z0.5000
G01 Z0.0000 F2400
G01 Z-1.0000
G01 X302.2740 Y245.5595 F6000
G01 Y246.7005
G01 X303.0065 Y247.5738
G01 X304.1299 Y247.7720
G01 X305.1171 Y247.2015
G01 X305.5070 Y246.1300
G01 X305.1171 Y245.0585
G01 X304.1299 Y244.4880
G01 X303.0065 Y244.6862
G01 Z-2.0000 F2400
G01 X302.2740 Y245.5595 F6000
G01 Y246.7005
G01 X303.0065 Y247.5738
G01 X304.1299 Y247.7720
G01 X305.1171 Y247.2015
G01 X305.5070 Y246.1300
G01 X305.1171 Y245.0585
G01 X304.1299 Y244.4880
G01 X303.0065 Y244.6862
G01 Z-3.0000 F2400
G01 X302.2740 Y245.5595 F6000
G01 Y246.7005
G01 X303.0065 Y247.5738
G01 X304.1299 Y247.7720
G01 X305.1171 Y247.2015
G01 X305.5070 Y246.1300
G01 X305.1171 Y245.0585
G01 X304.1299 Y244.4880
G01 X303.0065 Y244.6862
G01 Z-4.0000 F2400
G01 X302.2740 Y245.5595 F6000
G01 Y246.7005
G01 X303.0065 Y247.5738
G01 X304.1299 Y247.7720
G01 X305.1171 Y247.2015
G01 X305.5070 Y246.1300
G01 X305.1171 Y245.0585
G01 X304.1299 Y244.4880
G01 X303.0065 Y244.6862
G01 Z-5.0000 F2400
G01 X302.2740 Y245.5595 F6000
G01 Y246.7005
G01 X303.0065 Y247.5738
G01 X304.1299 Y247.7720
G01 X305.1171 Y247.2015
G01 X305.5070 Y246.1300
G01 X305.1171 Y245.0585
G01 X304.1299 Y244.4880
G01 X303.0065 Y244.6862
G01 Z-6.0000 F2400
G01 X302.2740 Y245.5595 F6000
G01 Y246.7005
G01 X303.0065 Y247.5738
G01 X304.1299 Y247.7720
G01 X305.1171 Y247.2015
G01 X305.5070 Y246.1300
G01 X305.1171 Y245.0585
G01 X304.1299 Y244.4880
G01 X303.0065 Y244.6862
G01 Z-7.0000 F2400
G01 X302.2740 Y245.5595 F6000
G01 Y246.7005
G01 X303.0065 Y247.5738
G01 X304.1299 Y247.7720
G01 X305.1171 Y247.2015
G01 X305.5070 Y246.1300
G01 X305.1171 Y245.0585
G01 X304.1299 Y244.4880
G01 X303.0065 Y244.6862
G01 Z-8.0000 F2400
G01 X302.2740 Y245.5595 F6000
G01 Y246.7005
G01 X303.0065 Y247.5738
G01 X304.1299 Y247.7720
G01 X305.1171 Y247.2015
G01 X305.5070 Y246.1300
G01 X305.1171 Y245.0585
G01 X304.1299 Y244.4880
G01 X303.0065 Y244.6862
G01 Z-8.5000 F2400
G01 X302.2740 Y245.5595 F6000
G01 Y246.7005
G01 X303.0065 Y247.5738
G01 X304.1299 Y247.7720
G01 X305.1171 Y247.2015
G01 X305.5070 Y246.1300
G01 X305.1171 Y245.0585
G01 X304.1299 Y244.4880
G01 X303.0065 Y244.6862
G00 Z5.0000


(No. 21: Hole 7)
G00 X190.2939 Y243.8200 Z5.0000
G00 Z0.5000
G01 Z0.0000 F2400
G01 Z-1.0000
G01 X189.5415 Y243.9522 F6000
G01 X189.0500 Y244.5375
G01 Y245.3025
G01 X189.5415 Y245.8878
G01 X190.2939 Y246.0200
G01 X190.9561 Y245.6375
G01 X191.2170 Y244.9200
G01 X190.9561 Y244.2025
G01 X190.2939 Y243.8200
G01 Z-2.0000 F2400
G01 X189.5415 Y243.9522 F6000
G01 X189.0500 Y244.5375
G01 Y245.3025
G01 X189.5415 Y245.8878
G01 X190.2939 Y246.0200
G01 X190.9561 Y245.6375
G01 X191.2170 Y244.9200
G01 X190.9561 Y244.2025
G01 X190.2939 Y243.8200
G01 Z-3.0000 F2400
G01 X189.5415 Y243.9522 F6000
G01 X189.0500 Y244.5375
G01 Y245.3025
G01 X189.5415 Y245.8878
G01 X190.2939 Y246.0200
G01 X190.9561 Y245.6375
G01 X191.2170 Y244.9200
G01 X190.9561 Y244.2025
G01 X190.2939 Y243.8200
G01 Z-4.0000 F2400
G01 X189.5415 Y243.9522 F6000
G01 X189.0500 Y244.5375
G01 Y245.3025
G01 X189.5415 Y245.8878
G01 X190.2939 Y246.0200
G01 X190.9561 Y245.6375
G01 X191.2170 Y244.9200
G01 X190.9561 Y244.2025
G01 X190.2939 Y243.8200
G01 Z-5.0000 F2400
G01 X189.5415 Y243.9522 F6000
G01 X189.0500 Y244.5375
G01 Y245.3025
G01 X189.5415 Y245.8878
G01 X190.2939 Y246.0200
G01 X190.9561 Y245.6375
G01 X191.2170 Y244.9200
G01 X190.9561 Y244.2025
G01 X190.2939 Y243.8200
G01 Z-6.0000 F2400
G01 X189.5415 Y243.9522 F6000
G01 X189.0500 Y244.5375
G01 Y245.3025
G01 X189.5415 Y245.8878
G01 X190.2939 Y246.0200
G01 X190.9561 Y245.6375
G01 X191.2170 Y244.9200
G01 X190.9561 Y244.2025
G01 X190.2939 Y243.8200
G01 Z-7.0000 F2400
G01 X189.5415 Y243.9522 F6000
G01 X189.0500 Y244.5375
G01 Y245.3025
G01 X189.5415 Y245.8878
G01 X190.2939 Y246.0200
G01 X190.9561 Y245.6375
G01 X191.2170 Y244.9200
G01 X190.9561 Y244.2025
G01 X190.2939 Y243.8200
G01 Z-8.0000 F2400
G01 X189.5415 Y243.9522 F6000
G01 X189.0500 Y244.5375
G01 Y245.3025
G01 X189.5415 Y245.8878
G01 X190.2939 Y246.0200
G01 X190.9561 Y245.6375
G01 X191.2170 Y244.9200
G01 X190.9561 Y244.2025
G01 X190.2939 Y243.8200
G01 Z-8.5000 F2400
G01 X189.5415 Y243.9522 F6000
G01 X189.0500 Y244.5375
G01 Y245.3025
G01 X189.5415 Y245.8878
G01 X190.2939 Y246.0200
G01 X190.9561 Y245.6375
G01 X191.2170 Y244.9200
G01 X190.9561 Y244.2025
G01 X190.2939 Y243.8200
G00 Z5.0000


(No. 22: Hole 5)
G00 X175.0329 Y230.6670 Z5.0000
G00 Z0.5000
G01 Z0.0000 F2400
G01 Z-1.0000
G01 X170.4065 Y231.4832 F6000
G01 X167.3870 Y235.0815
G01 Y239.7785
G01 X170.4065 Y243.3768
G01 X175.0329 Y244.1930
G01 X179.1001 Y241.8445
G01 X180.7070 Y237.4300
G01 X179.1001 Y233.0155
G01 X175.0329 Y230.6670
G01 Z-2.0000 F2400
G01 X170.4065 Y231.4832 F6000
G01 X167.3870 Y235.0815
G01 Y239.7785
G01 X170.4065 Y243.3768
G01 X175.0329 Y244.1930
G01 X179.1001 Y241.8445
G01 X180.7070 Y237.4300
G01 X179.1001 Y233.0155
G01 X175.0329 Y230.6670
G01 Z-3.0000 F2400
G01 X170.4065 Y231.4832 F6000
G01 X167.3870 Y235.0815
G01 Y239.7785
G01 X170.4065 Y243.3768
G01 X175.0329 Y244.1930
G01 X179.1001 Y241.8445
G01 X180.7070 Y237.4300
G01 X179.1001 Y233.0155
G01 X175.0329 Y230.6670
G01 Z-4.0000 F2400
G01 X170.4065 Y231.4832 F6000
G01 X167.3870 Y235.0815
G01 Y239.7785
G01 X170.4065 Y243.3768
G01 X175.0329 Y244.1930
G01 X179.1001 Y241.8445
G01 X180.7070 Y237.4300
G01 X179.1001 Y233.0155
G01 X175.0329 Y230.6670
G01 Z-5.0000 F2400
G01 X170.4065 Y231.4832 F6000
G01 X167.3870 Y235.0815
G01 Y239.7785
G01 X170.4065 Y243.3768
G01 X175.0329 Y244.1930
G01 X179.1001 Y241.8445
G01 X180.7070 Y237.4300
G01 X179.1001 Y233.0155
G01 X175.0329 Y230.6670
G01 Z-6.0000 F2400
G01 X170.4065 Y231.4832 F6000
G01 X167.3870 Y235.0815
G01 Y239.7785
G01 X170.4065 Y243.3768
G01 X175.0329 Y244.1930
G01 X179.1001 Y241.8445
G01 X180.7070 Y237.4300
G01 X179.1001 Y233.0155
G01 X175.0329 Y230.6670
G01 Z-7.0000 F2400
G01 X170.4065 Y231.4832 F6000
G01 X167.3870 Y235.0815
G01 Y239.7785
G01 X170.4065 Y243.3768
G01 X175.0329 Y244.1930
G01 X179.1001 Y241.8445
G01 X180.7070 Y237.4300
G01 X179.1001 Y233.0155
G01 X175.0329 Y230.6670
G01 Z-8.0000 F2400
G01 X170.4065 Y231.4832 F6000
G01 X167.3870 Y235.0815
G01 Y239.7785
G01 X170.4065 Y243.3768
G01 X175.0329 Y244.1930
G01 X179.1001 Y241.8445
G01 X180.7070 Y237.4300
G01 X179.1001 Y233.0155
G01 X175.0329 Y230.6670
G01 Z-8.5000 F2400
G01 X170.4065 Y231.4832 F6000
G01 X167.3870 Y235.0815
G01 Y239.7785
G01 X170.4065 Y243.3768
G01 X175.0329 Y244.1930
G01 X179.1001 Y241.8445
G01 X180.7070 Y237.4300
G01 X179.1001 Y233.0155
G01 X175.0329 Y230.6670
G00 Z5.0000


(No. 23: Hole 4)
G00 X145.0329 Y230.6670 Z5.0000
G00 Z0.5000
G01 Z0.0000 F2400
G01 Z-1.0000
G01 X140.4065 Y231.4832 F6000
G01 X137.3870 Y235.0815
G01 Y239.7785
G01 X140.4065 Y243.3768
G01 X145.0329 Y244.1930
G01 X149.1001 Y241.8445
G01 X150.7070 Y237.4300
G01 X149.1001 Y233.0155
G01 X145.0329 Y230.6670
G01 Z-2.0000 F2400
G01 X140.4065 Y231.4832 F6000
G01 X137.3870 Y235.0815
G01 Y239.7785
G01 X140.4065 Y243.3768
G01 X145.0329 Y244.1930
G01 X149.1001 Y241.8445
G01 X150.7070 Y237.4300
G01 X149.1001 Y233.0155
G01 X145.0329 Y230.6670
G01 Z-3.0000 F2400
G01 X140.4065 Y231.4832 F6000
G01 X137.3870 Y235.0815
G01 Y239.7785
G01 X140.4065 Y243.3768
G01 X145.0329 Y244.1930
G01 X149.1001 Y241.8445
G01 X150.7070 Y237.4300
G01 X149.1001 Y233.0155
G01 X145.0329 Y230.6670
G01 Z-4.0000 F2400
G01 X140.4065 Y231.4832 F6000
G01 X137.3870 Y235.0815
G01 Y239.7785
G01 X140.4065 Y243.3768
G01 X145.0329 Y244.1930
G01 X149.1001 Y241.8445
G01 X150.7070 Y237.4300
G01 X149.1001 Y233.0155
G01 X145.0329 Y230.6670
G01 Z-5.0000 F2400
G01 X140.4065 Y231.4832 F6000
G01 X137.3870 Y235.0815
G01 Y239.7785
G01 X140.4065 Y243.3768
G01 X145.0329 Y244.1930
G01 X149.1001 Y241.8445
G01 X150.7070 Y237.4300
G01 X149.1001 Y233.0155
G01 X145.0329 Y230.6670
G01 Z-6.0000 F2400
G01 X140.4065 Y231.4832 F6000
G01 X137.3870 Y235.0815
G01 Y239.7785
G01 X140.4065 Y243.3768
G01 X145.0329 Y244.1930
G01 X149.1001 Y241.8445
G01 X150.7070 Y237.4300
G01 X149.1001 Y233.0155
G01 X145.0329 Y230.6670
G01 Z-7.0000 F2400
G01 X140.4065 Y231.4832 F6000
G01 X137.3870 Y235.0815
G01 Y239.7785
G01 X140.4065 Y243.3768
G01 X145.0329 Y244.1930
G01 X149.1001 Y241.8445
G01 X150.7070 Y237.4300
G01 X149.1001 Y233.0155
G01 X145.0329 Y230.6670
G01 Z-8.0000 F2400
G01 X140.4065 Y231.4832 F6000
G01 X137.3870 Y235.0815
G01 Y239.7785
G01 X140.4065 Y243.3768
G01 X145.0329 Y244.1930
G01 X149.1001 Y241.8445
G01 X150.7070 Y237.4300
G01 X149.1001 Y233.0155
G01 X145.0329 Y230.6670
G01 Z-8.5000 F2400
G01 X140.4065 Y231.4832 F6000
G01 X137.3870 Y235.0815
G01 Y239.7785
G01 X140.4065 Y243.3768
G01 X145.0329 Y244.1930
G01 X149.1001 Y241.8445
G01 X150.7070 Y237.4300
G01 X149.1001 Y233.0155
G01 X145.0329 Y230.6670
G00 Z5.0000


(No. 24: Hole 3)
G00 X118.7150 Y229.5550 Z5.0000
G00 Z0.5000
G01 Z0.0000 F2400
G01 Z-1.0000
G01 X68.9650 F6000
G01 Y242.6380
G01 X118.7150
G01 Y229.5550
G01 Z-2.0000 F2400
G01 X68.9650 F6000
G01 Y242.6380
G01 X118.7150
G01 Y229.5550
G01 Z-3.0000 F2400
G01 X68.9650 F6000
G01 Y242.6380
G01 X118.7150
G01 Y229.5550
G01 Z-4.0000 F2400
G01 X68.9650 F6000
G01 Y242.6380
G01 X118.7150
G01 Y229.5550
G01 Z-5.0000 F2400
G01 X68.9650 F6000
G01 Y242.6380
G01 X118.7150
G01 Y229.5550
G01 Z-6.0000 F2400
G01 X68.9650 F6000
G01 Y242.6380
G01 X118.7150
G01 Y229.5550
G01 Z-7.0000 F2400
G01 X68.9650 F6000
G01 Y242.6380
G01 X118.7150
G01 Y229.5550
G01 Z-8.0000 F2400
G01 X68.9650 F6000
G01 Y242.6380
G01 X118.7150
G01 Y229.5550
G01 Z-8.5000 F2400
G01 X68.9650 F6000
G01 Y242.6380
G01 X118.7150
G01 Y229.5550
G00 Z5.0000


(No. 25: Hole 2)
G00 X58.2139 Y243.8200 Z5.0000
G00 Z0.5000
G01 Z0.0000 F2400
G01 Z-1.0000
G01 X57.4615 Y243.9522 F6000
G01 X56.9704 Y244.5375
G01 Y245.3025
G01 X57.4615 Y245.8878
G01 X58.2139 Y246.0200
G01 X58.8757 Y245.6375
G01 X59.1370 Y244.9200
G01 X58.8757 Y244.2025
G01 X58.2139 Y243.8200
G01 Z-2.0000 F2400
G01 X57.4615 Y243.9522 F6000
G01 X56.9704 Y244.5375
G01 Y245.3025
G01 X57.4615 Y245.8878
G01 X58.2139 Y246.0200
G01 X58.8757 Y245.6375
G01 X59.1370 Y244.9200
G01 X58.8757 Y244.2025
G01 X58.2139 Y243.8200
G01 Z-3.0000 F2400
G01 X57.4615 Y243.9522 F6000
G01 X56.9704 Y244.5375
G01 Y245.3025
G01 X57.4615 Y245.8878
G01 X58.2139 Y246.0200
G01 X58.8757 Y245.6375
G01 X59.1370 Y244.9200
G01 X58.8757 Y244.2025
G01 X58.2139 Y243.8200
G01 Z-4.0000 F2400
G01 X57.4615 Y243.9522 F6000
G01 X56.9704 Y244.5375
G01 Y245.3025
G01 X57.4615 Y245.8878
G01 X58.2139 Y246.0200
G01 X58.8757 Y245.6375
G01 X59.1370 Y244.9200
G01 X58.8757 Y244.2025
G01 X58.2139 Y243.8200
G01 Z-5.0000 F2400
G01 X57.4615 Y243.9522 F6000
G01 X56.9704 Y244.5375
G01 Y245.3025
G01 X57.4615 Y245.8878
G01 X58.2139 Y246.0200
G01 X58.8757 Y245.6375
G01 X59.1370 Y244.9200
G01 X58.8757 Y244.2025
G01 X58.2139 Y243.8200
G01 Z-6.0000 F2400
G01 X57.4615 Y243.9522 F6000
G01 X56.9704 Y244.5375
G01 Y245.3025
G01 X57.4615 Y245.8878
G01 X58.2139 Y246.0200
G01 X58.8757 Y245.6375
G01 X59.1370 Y244.9200
G01 X58.8757 Y244.2025
G01 X58.2139 Y243.8200
G01 Z-7.0000 F2400
G01 X57.4615 Y243.9522 F6000
G01 X56.9704 Y244.5375
G01 Y245.3025
G01 X57.4615 Y245.8878
G01 X58.2139 Y246.0200
G01 X58.8757 Y245.6375
G01 X59.1370 Y244.9200
G01 X58.8757 Y244.2025
G01 X58.2139 Y243.8200
G01 Z-8.0000 F2400
G01 X57.4615 Y243.9522 F6000
G01 X56.9704 Y244.5375
G01 Y245.3025
G01 X57.4615 Y245.8878
G01 X58.2139 Y246.0200
G01 X58.8757 Y245.6375
G01 X59.1370 Y244.9200
G01 X58.8757 Y244.2025
G01 X58.2139 Y243.8200
G01 Z-8.5000 F2400
G01 X57.4615 Y243.9522 F6000
G01 X56.9704 Y244.5375
G01 Y245.3025
G01 X57.4615 Y245.8878
G01 X58.2139 Y246.0200
G01 X58.8757 Y245.6375
G01 X59.1370 Y244.9200
G01 X58.8757 Y244.2025
G01 X58.2139 Y243.8200
G00 Z5.0000


(No. 26: Hole 1)
G00 X31.2770 Y245.0585 Z5.0000
G00 Z0.5000
G01 Z0.0000 F2400
G01 Z-1.0000
G01 X30.2895 Y244.4880 F6000
G01 X29.1665 Y244.6862
G01 X28.4336 Y245.5595
G01 Y246.7005
G01 X29.1665 Y247.5738
G01 X30.2895 Y247.7720
G01 X31.2770 Y247.2015
G01 X31.6670 Y246.1300
G01 X31.2770 Y245.0585
G01 Z-2.0000 F2400
G01 X30.2895 Y244.4880 F6000
G01 X29.1665 Y244.6862
G01 X28.4336 Y245.5595
G01 Y246.7005
G01 X29.1665 Y247.5738
G01 X30.2895 Y247.7720
G01 X31.2770 Y247.2015
G01 X31.6670 Y246.1300
G01 X31.2770 Y245.0585
G01 Z-3.0000 F2400
G01 X30.2895 Y244.4880 F6000
G01 X29.1665 Y244.6862
G01 X28.4336 Y245.5595
G01 Y246.7005
G01 X29.1665 Y247.5738
G01 X30.2895 Y247.7720
G01 X31.2770 Y247.2015
G01 X31.6670 Y246.1300
G01 X31.2770 Y245.0585
G01 Z-4.0000 F2400
G01 X30.2895 Y244.4880 F6000
G01 X29.1665 Y244.6862
G01 X28.4336 Y245.5595
G01 Y246.7005
G01 X29.1665 Y247.5738
G01 X30.2895 Y247.7720
G01 X31.2770 Y247.2015
G01 X31.6670 Y246.1300
G01 X31.2770 Y245.0585
G01 Z-5.0000 F2400
G01 X30.2895 Y244.4880 F6000
G01 X29.1665 Y244.6862
G01 X28.4336 Y245.5595
G01 Y246.7005
G01 X29.1665 Y247.5738
G01 X30.2895 Y247.7720
G01 X31.2770 Y247.2015
G01 X31.6670 Y246.1300
G01 X31.2770 Y245.0585
G01 Z-6.0000 F2400
G01 X30.2895 Y244.4880 F6000
G01 X29.1665 Y244.6862
G01 X28.4336 Y245.5595
G01 Y246.7005
G01 X29.1665 Y247.5738
G01 X30.2895 Y247.7720
G01 X31.2770 Y247.2015
G01 X31.6670 Y246.1300
G01 X31.2770 Y245.0585
G01 Z-7.0000 F2400
G01 X30.2895 Y244.4880 F6000
G01 X29.1665 Y244.6862
G01 X28.4336 Y245.5595
G01 Y246.7005
G01 X29.1665 Y247.5738
G01 X30.2895 Y247.7720
G01 X31.2770 Y247.2015
G01 X31.6670 Y246.1300
G01 X31.2770 Y245.0585
G01 Z-8.0000 F2400
G01 X30.2895 Y244.4880 F6000
G01 X29.1665 Y244.6862
G01 X28.4336 Y245.5595
G01 Y246.7005
G01 X29.1665 Y247.5738
G01 X30.2895 Y247.7720
G01 X31.2770 Y247.2015
G01 X31.6670 Y246.1300
G01 X31.2770 Y245.0585
G01 Z-8.5000 F2400
G01 X30.2895 Y244.4880 F6000
G01 X29.1665 Y244.6862
G01 X28.4336 Y245.5595
G01 Y246.7005
G01 X29.1665 Y247.5738
G01 X30.2895 Y247.7720
G01 X31.2770 Y247.2015
G01 X31.6670 Y246.1300
G01 X31.2770 Y245.0585
G00 Z5.0000


(No. 27: Part 1)
G00 X19.8783 Y151.1292 Z5.0000
G00 Z0.5000
G01 Z0.0000 F2400
G01 Z-1.0000
G01 X19.8750 Y100.1250 F6000
G01 X4.9961
G03 X-0.1151 Y95.3218 I0.0036 J-5.1249
G01 Y95.0000
G01 X-0.1250 Y4.9961
G03 X4.6781 Y-0.1151 I5.1249 J0.0036
G01 X5.0000
G01 X315.0039 Y-0.1250
G03 X318.9496 Y1.7393 I0.0073 J5.0919
G03 X318.9650 Y1.7995 I-0.1096 J0.0602
G01 Y21.2773
G00 Z0.0000
G01 Y21.6523
G01 Z-1.0000 F2400
G01 Y41.1300 F6000
G03 X318.8400 Y41.2550 I-0.1250 J0.0000
G01 X304.0650
G01 Y84.0050
G01 X318.8400
G03 X318.9650 Y84.1300 I0.0000 J0.1250
G01 Y99.1300
G03 X318.8400 Y99.2550 I-0.1250 J0.0000
G01 X314.7900
G03 X314.6650 Y99.1300 I0.0000 J-0.1250
G01 Y89.2550
G01 X304.1650
G01 Y157.1300
G03 X304.0650 Y157.2550 I-0.1315 J-0.0027
G01 Y158.5050
G01 X318.8400
G03 X318.9650 Y158.6300 I0.0000 J0.1250
G01 Y173.1300
G03 X318.8400 Y173.2550 I-0.1250 J0.0000
G01 X314.7900
G03 X314.6650 Y173.1300 I0.0000 J-0.1250
G01 Y164.7550
G01 X304.0650
G01 Y211.4050
G01 X318.8400
G03 X318.9650 Y211.5300 I0.0000 J0.1250
G01 Y256.8870
G03 X318.9364 Y256.9666 I-0.1250 J0.0000
G03 X316.5837 Y258.5741 I-3.8823 J-3.1566
G01 X315.9605 Y258.7340
G01 X315.3219 Y258.8150
G01 X315.0000
G01 X218.5195 Y258.8183
G00 Z0.0000
G01 X218.1445
G01 Z-1.0000 F2400
G01 X52.6191 Y258.8240 F6000
G00 Z0.0000
G01 X52.2441 Y258.8241
G01 Z-1.0000 F2400
G01 X24.9961 Y258.8250 F6000
G03 X19.8849 Y254.0219 I0.0031 J-5.1245
G01 Y253.7000
G01 X19.8816 Y202.6958
G00 Z0.0000
G01 Y202.3208
G01 Z-1.0000 F2400
G01 X19.8783 Y151.5042 F6000
G00 Z0.0000
G01 Y151.1292
G00 Z-0.5000
G01 Z-1.0000 F2400
G01 Z-2.0000
G01 X19.8750 Y100.1250 F6000
G01 X4.9961
G03 X-0.1151 Y95.3218 I0.0036 J-5.1249
G01 Y95.0000
G01 X-0.1250 Y4.9961
G03 X4.6781 Y-0.1151 I5.1249 J0.0036
G01 X5.0000
G01 X315.0039 Y-0.1250
G03 X318.9496 Y1.7393 I0.0073 J5.0919
G03 X318.9650 Y1.7995 I-0.1096 J0.0602
G01 Y21.2773
G00 Z0.0000
G01 Y21.6523
G00 Z-0.5000
G01 Z-1.0000 F2400
G01 Z-2.0000
G01 Y41.1300 F6000
G03 X318.8400 Y41.2550 I-0.1250 J0.0000
G01 X304.0650
G01 Y84.0050
G01 X318.8400
G03 X318.9650 Y84.1300 I0.0000 J0.1250
G01 Y99.1300
G03 X318.8400 Y99.2550 I-0.1250 J0.0000
G01 X314.7900
G03 X314.6650 Y99.1300 I0.0000 J-0.1250
G01 Y89.2550
G01 X304.1650
G01 Y157.1300
G03 X304.0650 Y157.2550 I-0.1315 J-0.0027
G01 Y158.5050
G01 X318.8400
G03 X318.9650 Y158.6300 I0.0000 J0.1250
G01 Y173.1300
G03 X318.8400 Y173.2550 I-0.1250 J0.0000
G01 X314.7900
G03 X314.6650 Y173.1300 I0.0000 J-0.1250
G01 Y164.7550
G01 X304.0650
G01 Y211.4050
G01 X318.8400
G03 X318.9650 Y211.5300 I0.0000 J0.1250
G01 Y256.8870
G03 X318.9364 Y256.9666 I-0.1250 J0.0000
G03 X316.5837 Y258.5741 I-3.8823 J-3.1566
G01 X315.9605 Y258.7340
G01 X315.3219 Y258.8150
G01 X315.0000
G01 X218.5195 Y258.8183
G00 Z0.0000
G01 X218.1445
G00 Z-0.5000
G01 Z-1.0000 F2400
G01 Z-2.0000
G01 X52.6191 Y258.8240 F6000
G00 Z0.0000
G01 X52.2441 Y258.8241
G00 Z-0.5000
G01 Z-1.0000 F2400
G01 Z-2.0000
G01 X24.9961 Y258.8250 F6000
G03 X19.8849 Y254.0219 I0.0031 J-5.1245
G01 Y253.7000
G01 X19.8816 Y202.6958
G00 Z0.0000
G01 Y202.3208
G00 Z-0.5000
G01 Z-1.0000 F2400
G01 Z-2.0000
G01 X19.8783 Y151.5042 F6000
G00 Z0.0000
G01 Y151.1292
G00 Z-1.5000
G01 Z-2.0000 F2400
G01 Z-3.0000
G01 X19.8750 Y100.1250 F6000
G01 X4.9961
G03 X-0.1151 Y95.3218 I0.0036 J-5.1249
G01 Y95.0000
G01 X-0.1250 Y4.9961
G03 X4.6781 Y-0.1151 I5.1249 J0.0036
G01 X5.0000
G01 X315.0039 Y-0.1250
G03 X318.9496 Y1.7393 I0.0073 J5.0919
G03 X318.9650 Y1.7995 I-0.1096 J0.0602
G01 Y21.2773
G00 Z0.0000
G01 Y21.6523
G00 Z-1.5000
G01 Z-2.0000 F2400
G01 Z-3.0000
G01 Y41.1300 F6000
G03 X318.8400 Y41.2550 I-0.1250 J0.0000
G01 X304.0650
G01 Y84.0050
G01 X318.8400
G03 X318.9650 Y84.1300 I0.0000 J0.1250
G01 Y99.1300
G03 X318.8400 Y99.2550 I-0.1250 J0.0000
G01 X314.7900
G03 X314.6650 Y99.1300 I0.0000 J-0.1250
G01 Y89.2550
G01 X304.1650
G01 Y157.1300
G03 X304.0650 Y157.2550 I-0.1315 J-0.0027
G01 Y158.5050
G01 X318.8400
G03 X318.9650 Y158.6300 I0.0000 J0.1250
G01 Y173.1300
G03 X318.8400 Y173.2550 I-0.1250 J0.0000
G01 X314.7900
G03 X314.6650 Y173.1300 I0.0000 J-0.1250
G01 Y164.7550
G01 X304.0650
G01 Y211.4050
G01 X318.8400
G03 X318.9650 Y211.5300 I0.0000 J0.1250
G01 Y256.8870
G03 X318.9364 Y256.9666 I-0.1250 J0.0000
G03 X316.5837 Y258.5741 I-3.8823 J-3.1566
G01 X315.9605 Y258.7340
G01 X315.3219 Y258.8150
G01 X315.0000
G01 X218.5195 Y258.8183
G00 Z0.0000
G01 X218.1445
G00 Z-1.5000
G01 Z-2.0000 F2400
G01 Z-3.0000
G01 X52.6191 Y258.8240 F6000
G00 Z0.0000
G01 X52.2441 Y258.8241
G00 Z-1.5000
G01 Z-2.0000 F2400
G01 Z-3.0000
G01 X24.9961 Y258.8250 F6000
G03 X19.8849 Y254.0219 I0.0031 J-5.1245
G01 Y253.7000
G01 X19.8816 Y202.6958
G00 Z0.0000
G01 Y202.3208
G00 Z-1.5000
G01 Z-2.0000 F2400
G01 Z-3.0000
G01 X19.8783 Y151.5042 F6000
G00 Z0.0000
G01 Y151.1292
G00 Z-2.5000
G01 Z-3.0000 F2400
G01 Z-4.0000
G01 X19.8750 Y100.1250 F6000
G01 X4.9961
G03 X-0.1151 Y95.3218 I0.0036 J-5.1249
G01 Y95.0000
G01 X-0.1250 Y4.9961
G03 X4.6781 Y-0.1151 I5.1249 J0.0036
G01 X5.0000
G01 X315.0039 Y-0.1250
G03 X318.9496 Y1.7393 I0.0073 J5.0919
G03 X318.9650 Y1.7995 I-0.1096 J0.0602
G01 Y21.2773
G00 Z0.0000
G01 Y21.6523
G00 Z-2.5000
G01 Z-3.0000 F2400
G01 Z-4.0000
G01 Y41.1300 F6000
G03 X318.8400 Y41.2550 I-0.1250 J0.0000
G01 X304.0650
G01 Y84.0050
G01 X318.8400
G03 X318.9650 Y84.1300 I0.0000 J0.1250
G01 Y99.1300
G03 X318.8400 Y99.2550 I-0.1250 J0.0000
G01 X314.7900
G03 X314.6650 Y99.1300 I0.0000 J-0.1250
G01 Y89.2550
G01 X304.1650
G01 Y157.1300
G03 X304.0650 Y157.2550 I-0.1315 J-0.0027
G01 Y158.5050
G01 X318.8400
G03 X318.9650 Y158.6300 I0.0000 J0.1250
G01 Y173.1300
G03 X318.8400 Y173.2550 I-0.1250 J0.0000
G01 X314.7900
G03 X314.6650 Y173.1300 I0.0000 J-0.1250
G01 Y164.7550
G01 X304.0650
G01 Y211.4050
G01 X318.8400
G03 X318.9650 Y211.5300 I0.0000 J0.1250
G01 Y256.8870
G03 X318.9364 Y256.9666 I-0.1250 J0.0000
G03 X316.5837 Y258.5741 I-3.8823 J-3.1566
G01 X315.9605 Y258.7340
G01 X315.3219 Y258.8150
G01 X315.0000
G01 X218.5195 Y258.8183
G00 Z0.0000
G01 X218.1445
G00 Z-2.5000
G01 Z-3.0000 F2400
G01 Z-4.0000
G01 X52.6191 Y258.8240 F6000
G00 Z0.0000
G01 X52.2441 Y258.8241
G00 Z-2.5000
G01 Z-3.0000 F2400
G01 Z-4.0000
G01 X24.9961 Y258.8250 F6000
G03 X19.8849 Y254.0219 I0.0031 J-5.1245
G01 Y253.7000
G01 X19.8816 Y202.6958
G00 Z0.0000
G01 Y202.3208
G00 Z-2.5000
G01 Z-3.0000 F2400
G01 Z-4.0000
G01 X19.8783 Y151.5042 F6000
G00 Z0.0000
G01 Y151.1292
G00 Z-3.5000
G01 Z-4.0000 F2400
G01 Z-5.0000
G01 X19.8750 Y100.1250 F6000
G01 X4.9961
G03 X-0.1151 Y95.3218 I0.0036 J-5.1249
G01 Y95.0000
G01 X-0.1250 Y4.9961
G03 X4.6781 Y-0.1151 I5.1249 J0.0036
G01 X5.0000
G01 X315.0039 Y-0.1250
G03 X318.9496 Y1.7393 I0.0073 J5.0919
G03 X318.9650 Y1.7995 I-0.1096 J0.0602
G01 Y21.2773
G00 Z0.0000
G01 Y21.6523
G00 Z-3.5000
G01 Z-4.0000 F2400
G01 Z-5.0000
G01 Y41.1300 F6000
G03 X318.8400 Y41.2550 I-0.1250 J0.0000
G01 X304.0650
G01 Y84.0050
G01 X318.8400
G03 X318.9650 Y84.1300 I0.0000 J0.1250
G01 Y99.1300
G03 X318.8400 Y99.2550 I-0.1250 J0.0000
G01 X314.7900
G03 X314.6650 Y99.1300 I0.0000 J-0.1250
G01 Y89.2550
G01 X304.1650
G01 Y157.1300
G03 X304.0650 Y157.2550 I-0.1315 J-0.0027
G01 Y158.5050
G01 X318.8400
G03 X318.9650 Y158.6300 I0.0000 J0.1250
G01 Y173.1300
G03 X318.8400 Y173.2550 I-0.1250 J0.0000
G01 X314.7900
G03 X314.6650 Y173.1300 I0.0000 J-0.1250
G01 Y164.7550
G01 X304.0650
G01 Y211.4050
G01 X318.8400
G03 X318.9650 Y211.5300 I0.0000 J0.1250
G01 Y256.8870
G03 X318.9364 Y256.9666 I-0.1250 J0.0000
G03 X316.5837 Y258.5741 I-3.8823 J-3.1566
G01 X315.9605 Y258.7340
G01 X315.3219 Y258.8150
G01 X315.0000
G01 X218.5195 Y258.8183
G00 Z0.0000
G01 X218.1445
G00 Z-3.5000
G01 Z-4.0000 F2400
G01 Z-5.0000
G01 X52.6191 Y258.8240 F6000
G00 Z0.0000
G01 X52.2441 Y258.8241
G00 Z-3.5000
G01 Z-4.0000 F2400
G01 Z-5.0000
G01 X24.9961 Y258.8250 F6000
G03 X19.8849 Y254.0219 I0.0031 J-5.1245
G01 Y253.7000
G01 X19.8816 Y202.6958
G00 Z0.0000
G01 Y202.3208
G00 Z-3.5000
G01 Z-4.0000 F2400
G01 Z-5.0000
G01 X19.8783 Y151.5042 F6000
G00 Z0.0000
G01 Y151.1292
G00 Z-4.5000
G01 Z-5.0000 F2400
G01 Z-6.0000
G01 X19.8750 Y100.1250 F6000
G01 X4.9961
G03 X-0.1151 Y95.3218 I0.0036 J-5.1249
G01 Y95.0000
G01 X-0.1250 Y4.9961
G03 X4.6781 Y-0.1151 I5.1249 J0.0036
G01 X5.0000
G01 X315.0039 Y-0.1250
G03 X318.9496 Y1.7393 I0.0073 J5.0919
G03 X318.9650 Y1.7995 I-0.1096 J0.0602
G01 Y21.2773
G00 Z0.0000
G01 Y21.6523
G00 Z-4.5000
G01 Z-5.0000 F2400
G01 Z-6.0000
G01 Y41.1300 F6000
G03 X318.8400 Y41.2550 I-0.1250 J0.0000
G01 X304.0650
G01 Y84.0050
G01 X318.8400
G03 X318.9650 Y84.1300 I0.0000 J0.1250
G01 Y99.1300
G03 X318.8400 Y99.2550 I-0.1250 J0.0000
G01 X314.7900
G03 X314.6650 Y99.1300 I0.0000 J-0.1250
G01 Y89.2550
G01 X304.1650
G01 Y157.1300
G03 X304.0650 Y157.2550 I-0.1315 J-0.0027
G01 Y158.5050
G01 X318.8400
G03 X318.9650 Y158.6300 I0.0000 J0.1250
G01 Y173.1300
G03 X318.8400 Y173.2550 I-0.1250 J0.0000
G01 X314.7900
G03 X314.6650 Y173.1300 I0.0000 J-0.1250
G01 Y164.7550
G01 X304.0650
G01 Y211.4050
G01 X318.8400
G03 X318.9650 Y211.5300 I0.0000 J0.1250
G01 Y256.8870
G03 X318.9364 Y256.9666 I-0.1250 J0.0000
G03 X316.5837 Y258.5741 I-3.8823 J-3.1566
G01 X315.9605 Y258.7340
G01 X315.3219 Y258.8150
G01 X315.0000
G01 X218.5195 Y258.8183
G00 Z0.0000
G01 X218.1445
G00 Z-4.5000
G01 Z-5.0000 F2400
G01 Z-6.0000
G01 X52.6191 Y258.8240 F6000
G00 Z0.0000
G01 X52.2441 Y258.8241
G00 Z-4.5000
G01 Z-5.0000 F2400
G01 Z-6.0000
G01 X24.9961 Y258.8250 F6000
G03 X19.8849 Y254.0219 I0.0031 J-5.1245
G01 Y253.7000
G01 X19.8816 Y202.6958
G00 Z0.0000
G01 Y202.3208
G00 Z-4.5000
G01 Z-5.0000 F2400
G01 Z-6.0000
G01 X19.8783 Y151.5042 F6000
G00 Z0.0000
G01 Y151.1292
G00 Z-5.5000
G01 Z-6.0000 F2400
G01 Z-7.0000
G01 X19.8750 Y100.1250 F6000
G01 X4.9961
G03 X-0.1151 Y95.3218 I0.0036 J-5.1249
G01 Y95.0000
G01 X-0.1250 Y4.9961
G03 X4.6781 Y-0.1151 I5.1249 J0.0036
G01 X5.0000
G01 X315.0039 Y-0.1250
G03 X318.9496 Y1.7393 I0.0073 J5.0919
G03 X318.9650 Y1.7995 I-0.1096 J0.0602
G01 Y21.2773
G00 Z0.0000
G01 Y21.6523
G00 Z-5.5000
G01 Z-6.0000 F2400
G01 Z-7.0000
G01 Y41.1300 F6000
G03 X318.8400 Y41.2550 I-0.1250 J0.0000
G01 X304.0650
G01 Y84.0050
G01 X318.8400
G03 X318.9650 Y84.1300 I0.0000 J0.1250
G01 Y99.1300
G03 X318.8400 Y99.2550 I-0.1250 J0.0000
G01 X314.7900
G03 X314.6650 Y99.1300 I0.0000 J-0.1250
G01 Y89.2550
G01 X304.1650
G01 Y157.1300
G03 X304.0650 Y157.2550 I-0.1315 J-0.0027
G01 Y158.5050
G01 X318.8400
G03 X318.9650 Y158.6300 I0.0000 J0.1250
G01 Y173.1300
G03 X318.8400 Y173.2550 I-0.1250 J0.0000
G01 X314.7900
G03 X314.6650 Y173.1300 I0.0000 J-0.1250
G01 Y164.7550
G01 X304.0650
G01 Y211.4050
G01 X318.8400
G03 X318.9650 Y211.5300 I0.0000 J0.1250
G01 Y256.8870
G03 X318.9364 Y256.9666 I-0.1250 J0.0000
G03 X316.5837 Y258.5741 I-3.8823 J-3.1566
G01 X315.9605 Y258.7340
G01 X315.3219 Y258.8150
G01 X315.0000
G01 X218.5195 Y258.8183
G00 Z0.0000
G01 X218.1445
G00 Z-5.5000
G01 Z-6.0000 F2400
G01 Z-7.0000
G01 X52.6191 Y258.8240 F6000
G00 Z0.0000
G01 X52.2441 Y258.8241
G00 Z-5.5000
G01 Z-6.0000 F2400
G01 Z-7.0000
G01 X24.9961 Y258.8250 F6000
G03 X19.8849 Y254.0219 I0.0031 J-5.1245
G01 Y253.7000
G01 X19.8816 Y202.6958
G00 Z0.0000
G01 Y202.3208
G00 Z-5.5000
G01 Z-6.0000 F2400
G01 Z-7.0000
G01 X19.8783 Y151.5042 F6000
G00 Z0.0000
G01 Y151.1292
G00 Z-6.5000
G01 Z-7.0000 F2400
G01 Z-8.0000
G01 X19.8750 Y100.1250 F6000
G01 X4.9961
G03 X-0.1151 Y95.3218 I0.0036 J-5.1249
G01 Y95.0000
G01 X-0.1250 Y4.9961
G03 X4.6781 Y-0.1151 I5.1249 J0.0036
G01 X5.0000
G01 X315.0039 Y-0.1250
G03 X318.9496 Y1.7393 I0.0073 J5.0919
G03 X318.9650 Y1.7995 I-0.1096 J0.0602
G01 Y21.2773
G00 Z0.0000
G01 Y21.6523
G00 Z-6.5000
G01 Z-7.0000 F2400
G01 Z-8.0000
G01 Y41.1300 F6000
G03 X318.8400 Y41.2550 I-0.1250 J0.0000
G01 X304.0650
G01 Y84.0050
G01 X318.8400
G03 X318.9650 Y84.1300 I0.0000 J0.1250
G01 Y99.1300
G03 X318.8400 Y99.2550 I-0.1250 J0.0000
G01 X314.7900
G03 X314.6650 Y99.1300 I0.0000 J-0.1250
G01 Y89.2550
G01 X304.1650
G01 Y157.1300
G03 X304.0650 Y157.2550 I-0.1315 J-0.0027
G01 Y158.5050
G01 X318.8400
G03 X318.9650 Y158.6300 I0.0000 J0.1250
G01 Y173.1300
G03 X318.8400 Y173.2550 I-0.1250 J0.0000
G01 X314.7900
G03 X314.6650 Y173.1300 I0.0000 J-0.1250
G01 Y164.7550
G01 X304.0650
G01 Y211.4050
G01 X318.8400
G03 X318.9650 Y211.5300 I0.0000 J0.1250
G01 Y256.8870
G03 X318.9364 Y256.9666 I-0.1250 J0.0000
G03 X316.5837 Y258.5741 I-3.8823 J-3.1566
G01 X315.9605 Y258.7340
G01 X315.3219 Y258.8150
G01 X315.0000
G01 X218.5195 Y258.8183
G00 Z0.0000
G01 X218.1445
G00 Z-6.5000
G01 Z-7.0000 F2400
G01 Z-8.0000
G01 X52.6191 Y258.8240 F6000
G00 Z0.0000
G01 X52.2441 Y258.8241
G00 Z-6.5000
G01 Z-7.0000 F2400
G01 Z-8.0000
G01 X24.9961 Y258.8250 F6000
G03 X19.8849 Y254.0219 I0.0031 J-5.1245
G01 Y253.7000
G01 X19.8816 Y202.6958
G00 Z0.0000
G01 Y202.3208
G00 Z-6.5000
G01 Z-7.0000 F2400
G01 Z-8.0000
G01 X19.8783 Y151.5042 F6000
G00 Z0.0000
G01 Y151.1292
G00 Z-7.5000
G01 Z-8.0000 F2400
G01 Z-8.5000
G01 X19.8750 Y100.1250 F6000
G01 X4.9961
G03 X-0.1151 Y95.3218 I0.0036 J-5.1249
G01 Y95.0000
G01 X-0.1250 Y4.9961
G03 X4.6781 Y-0.1151 I5.1249 J0.0036
G01 X5.0000
G01 X315.0039 Y-0.1250
G03 X318.9496 Y1.7393 I0.0073 J5.0919
G03 X318.9650 Y1.7995 I-0.1096 J0.0602
G01 Y21.2773
G00 Z0.0000
G01 Y21.6523
G00 Z-7.5000
G01 Z-8.0000 F2400
G01 Z-8.5000
G01 Y41.1300 F6000
G03 X318.8400 Y41.2550 I-0.1250 J0.0000
G01 X304.0650
G01 Y84.0050
G01 X318.8400
G03 X318.9650 Y84.1300 I0.0000 J0.1250
G01 Y99.1300
G03 X318.8400 Y99.2550 I-0.1250 J0.0000
G01 X314.7900
G03 X314.6650 Y99.1300 I0.0000 J-0.1250
G01 Y89.2550
G01 X304.1650
G01 Y157.1300
G03 X304.0650 Y157.2550 I-0.1315 J-0.0027
G01 Y158.5050
G01 X318.8400
G03 X318.9650 Y158.6300 I0.0000 J0.1250
G01 Y173.1300
G03 X318.8400 Y173.2550 I-0.1250 J0.0000
G01 X314.7900
G03 X314.6650 Y173.1300 I0.0000 J-0.1250
G01 Y164.7550
G01 X304.0650
G01 Y211.4050
G01 X318.8400
G03 X318.9650 Y211.5300 I0.0000 J0.1250
G01 Y256.8870
G03 X318.9364 Y256.9666 I-0.1250 J0.0000
G03 X316.5837 Y258.5741 I-3.8823 J-3.1566
G01 X315.9605 Y258.7340
G01 X315.3219 Y258.8150
G01 X315.0000
G01 X218.5195 Y258.8183
G00 Z0.0000
G01 X218.1445
G00 Z-7.5000
G01 Z-8.0000 F2400
G01 Z-8.5000
G01 X52.6191 Y258.8240 F6000
G00 Z0.0000
G01 X52.2441 Y258.8241
G00 Z-7.5000
G01 Z-8.0000 F2400
G01 Z-8.5000
G01 X24.9961 Y258.8250 F6000
G03 X19.8849 Y254.0219 I0.0031 J-5.1245
G01 Y253.7000
G01 X19.8816 Y202.6958
G00 Z0.0000
G01 Y202.3208
G00 Z-7.5000
G01 Z-8.0000 F2400
G01 Z-8.5000
G01 X19.8783 Y151.5042 F6000
G00 Z0.0000
G01 Y151.1292
G00 Z5.0000
G00 X0.0000 Y0.0000

M05
M30
